X:54
T:Seven Stars, The
T:Moon And Seven Stars, The
M:6/8
L:1/8
R:jig
K:Dmaj
|: d2A AGF | GAB A2A | Bcd efg | fed cBA |d2A AGF | GAB A2A |
Bcd efg |Adc d2d :|e2A A2A | efg ~f2d | efg fed |
cde A2A |BGB AFA | BGB AFA | Bcd efg | Adc d2d :|
